!!!COM: Schubert, Franz
!!!CNT: Deutscher
!!!TXO: Deutsch
!!!OTL: "Irrlicht"
!!!OPR: Winterreise
!!!LYR: Mu2ller, Wilhelm
!!!OPS: Opus 89
!!!ONM: No. 9
!!!ODT: 1827/
!!NB: Vocal melody only encoded.
**kern	**silbe
*clefG2	*
*k[f#c#]	*
*M3/8	*
*MM[langsam]	*
=5	=5
{16.b	{In
32b	die
8.f#	tief-
16f#	-sten
=6	=6
16.e	Fel-
32g	-sen-
8.B	-gru2n-
16B}	-de}
=7	=7
{16.f#	{lock-
32f#	-te
16.f#	mich
32f#	ein
24f#	Irr-
24g#	|
24a#	-licht
=8	=8
4b}	hin:}
8r	.
=9	=9
{8.dd	{Wie
16a#	ich
16a#	ei-
16a#	-nen
=10	=10
16b	Aug-
16dd	-gang
16cc#	fin-
16b	|
8b}	-de,}
=11;	=11;
{16.b	{liegt
32g	nicht
16.e	schwer
32c#	mir
16.ee	in
32cc#	dem
=12	=12
4dd}	Sinn,}
8r	.
=13	=13
{32f#	{liegt
32b	|
32b	nicht
32cc#	|
32cc#	schwer
32dd	|
32cc#	mir
32b	|
24a#	in
24ff#	|
24a#	dem
=14	=14
4b}	Sinn.}
8r	.
=17	=17
{32b	{Bin-
32cc#	|
32dd	-ge-
32ee	|
8.ff#	-wohnt
16f#	das
=18	=18
32e	ir-
32f#	|
32g	-re
32a	|
8b	Ge-
16B}	-hen,}
16r	.
=19	=19
{16.f#	{'sfu2hrt
32f#	ja
16.dd	je-
32dd	-der
24cc#	Weg
24b	|
24a#	zum
=20	=20
4b}	Ziel}
{16.dd	{un-
32dd	-sre
=21	=21
8.dd	Freu-
16a#	-den,
16.a#	un-
32a#	-sre
=22	=22
8b	We-
8dd}	-hen.}
8r	.
=23	=23
{16.b	{al-
32g	-les
16.e	ei-
32c#	-nes
16.ee	Irr-
32cc#	-lichts
=24	=24
4dd}	Spiel,}
8r	.
=25	=25
{32f#	{al-
32b	|
32b	-les
32cc#	|
32cc#	ei-
32dd	|
32cc#	-nes
32b	|
24a#	Irr-
24ff#	|
24a#	-lichts
=26	=26
4b}	Spiel!}
8r	.
=28	=28
8r	.
8r	.
{16b	{Durch
16b	des
=29	=29
8.ccn	Berg-
16ccn	-stroms
16b	trock-
16a	-ne
=30	=30
16.g	Rin-
32f#	|
8e}	-nen}
{16e	{wind'
16f#	ich
=31	=31
8.g	ru-
16g	-hig
16.f#	mich
32d#	hin-
=32	=32
4B}	-ab;}
{16B	{je-
16B	-der
=33	=33
(8cn	Strom
32cn)	|
32e	|
32g	wird's
32ccn	|
32b	Meer
32gg	|
32ffn	ge-
32dd	|
=34	=34
(16dd	-win-
16ccn)	|
8ccn}	-nen,}
{24ccn	{je-
24ee	|
24ccn	-des
=35	=35
[8b	Lei-
32b]	|
32dd	|
32cc#	-den
32b	|
24a#	auch
24ff#	|
24a#	sein
=36	=36
4b}	Grab,}
{16B	{je-
16B	-der
=37	=37
[8cn	Strom
32cn]	|
32e	|
32g	wird's
32ccn	|
32b	Meer
32gg	|
32ffn	ge-
32dd	|
=38	=38
16dd	-win-
16ccn	|
8ccn}	-nen,}
{24ccn	{je-
24ee	|
24ccn	-des
=39	=39
[8b	Lei-
32b]	|
32dd	|
32cc#	-den
32b	|
32a#	auch
32gg	|
32ff#	sein
32a#	|
=40	=40
4b}	Grab.}
8r	.
*-	*-
